build/img/icons/fire2.svg

<svg width="46" height="43" viewBox="0 0 46 43" fill="none" xmlns="http://www.w3.org/2000/svg">
<path fill-rule="evenodd" clip-rule="evenodd" d="M45.1426 20.2644H42.9997C42.6047 20.2644 42.2854 19.9459 42.2854 19.5502C42.2854 19.1544 42.6047 18.8359 42.9997 18.8359H45.1426C45.5376 18.8359 45.8569 19.1559 45.8569 19.5502C45.8569 19.9444 45.5376 20.2644 45.1426 20.2644ZM44.6783 10.9559L42.674 11.713C42.3047 11.853 41.8954 11.6616 41.7576 11.2844C41.6219 10.9102 41.8147 10.4916 42.179 10.3523L44.1861 9.59516C44.5576 9.45587 44.9647 9.64659 45.1076 10.0237C45.2504 10.4009 45.0576 10.8166 44.6861 10.9559H44.6783ZM40.334 3.36587C40.0461 3.63587 39.594 3.61587 39.324 3.32087C39.054 3.02087 39.069 2.56373 39.3561 2.2923L40.9204 0.828016C41.2061 0.556588 41.6561 0.578016 41.9276 0.870874C42.199 1.16373 42.1776 1.62087 41.8919 1.8923L40.3283 3.3573L40.334 3.36587ZM39.4283 20.2659C39.4283 33.3344 27.7819 42.4073 22.9997 42.4073C18.2176 42.4073 6.57115 33.3987 6.57115 20.2644V7.4073C6.57115 5.96445 13.9261 2.4073 22.9997 2.4073C32.0726 2.4073 39.4283 5.96445 39.4283 7.4073V20.2644V20.2659ZM37.9997 8.12302C37.9997 6.79016 31.3754 3.8373 22.9997 3.8373C14.624 3.8373 7.99972 6.79016 7.99972 8.12302V20.2659C7.99972 32.3716 18.5854 40.9787 22.9997 40.9787C27.414 40.9787 37.9997 32.3144 37.9997 20.2644V8.12159V8.12302ZM22.9997 38.8359C19.2604 38.8359 10.1426 30.7316 10.1426 20.2644V9.55016C10.1426 8.40016 15.6711 5.97873 22.9997 5.97873C30.3283 5.97873 35.8569 8.40016 35.8569 9.55016V20.2644C35.8569 30.6802 26.7383 38.8359 22.9997 38.8359ZM34.4283 10.2644C34.4283 9.59444 29.764 7.4073 22.9997 7.4073C16.2354 7.4073 11.5711 9.63302 11.5711 10.2644V20.2644C11.5711 29.913 20.4819 37.4073 22.9997 37.4073C25.5483 37.4073 34.4283 29.8666 34.4283 20.2644V10.2644ZM22.9997 29.5502C19.0547 29.5502 16.5711 27.0666 16.5711 23.1216C16.5711 19.1787 20.7197 16.373 19.4283 11.693C26.3583 11.693 29.4283 19.1787 29.4283 23.1216C29.4283 27.0666 26.944 29.5502 22.9997 29.5502ZM22.9997 28.1073C24.1904 28.1073 24.4426 27.1487 24.4426 25.9659C24.4426 23.7252 23.4497 21.6944 22.9997 21.6944C22.464 23.928 21.5569 24.783 21.5569 25.9659C21.5569 27.1487 21.809 28.1073 22.9997 28.1073ZM21.0947 13.1216C21.0947 18.7252 17.9997 20.1044 17.9997 23.2109C17.9997 25.3323 18.8761 26.8252 20.424 27.573C20.2419 27.0659 20.1426 26.5187 20.1426 25.9787C20.1426 23.6216 22.0247 23.0716 21.5711 20.2644C25.5426 20.2644 25.8569 24.2694 25.8569 25.9787C25.8569 26.5187 25.7569 27.0666 25.5754 27.573C27.1233 26.8252 27.9997 25.3302 27.9997 23.2109C27.9997 17.0866 22.5461 13.1223 21.0947 13.1223V13.1216ZM6.23901 3.00944L4.66186 1.54302C4.37115 1.27373 4.35686 0.815873 4.62829 0.521588C4.90186 0.225873 5.35829 0.205874 5.64829 0.475159L7.22472 1.94087C7.51543 2.21016 7.53044 2.66944 7.25758 2.96373C6.98615 3.25659 6.52901 3.27802 6.24329 3.00659L6.23901 3.00944ZM3.82115 28.7502L1.81544 29.5059C1.44615 29.6452 1.03686 29.4544 0.899721 29.0787C0.762578 28.7023 0.949721 28.2859 1.31972 28.1452L3.32543 27.388C3.69472 27.248 4.10401 27.4402 4.24115 27.8166C4.37901 28.1909 4.19115 28.6094 3.82115 28.7494V28.7502ZM3.28544 11.8359L1.27615 11.0902C0.90615 10.953 0.717578 10.5416 0.854721 10.1716C0.991864 9.80159 1.40329 9.61444 1.77258 9.75016L3.78186 10.4959C4.15186 10.633 4.34044 11.0444 4.20329 11.4144C4.06758 11.7844 3.65544 11.9716 3.28544 11.8359ZM2.99972 18.8359C3.39472 18.8359 3.71401 19.1559 3.71401 19.5502C3.71401 19.9444 3.39472 20.2644 2.99972 20.2644H0.856864C0.461864 20.2644 0.142578 19.9459 0.142578 19.5502C0.142578 19.1544 0.461864 18.8359 0.856864 18.8359H2.99972ZM6.37972 36.4502C6.66758 36.1787 7.12044 36.2002 7.39044 36.4952C7.66044 36.7909 7.64543 37.2487 7.35758 37.518L5.80044 38.9844C5.51472 39.2537 5.06472 39.233 4.79329 38.9387C4.52186 38.643 4.54043 38.1852 4.82758 37.9159L6.39186 36.4502H6.37972ZM39.7604 36.8073L41.3376 38.2716C41.6276 38.5416 41.6426 39.0002 41.3704 39.2952C41.0919 39.5894 40.6347 39.6094 40.349 39.3409L38.7704 37.8744C38.4776 37.6052 38.4633 37.1473 38.7347 36.8516C39.0061 36.5573 39.4633 36.5373 39.749 36.8073H39.7604ZM42.714 27.2644L44.7233 28.0116C45.0933 28.1473 45.2819 28.5602 45.1447 28.9294C45.0076 29.2987 44.5961 29.4937 44.2269 29.3509L42.2176 28.608C41.8461 28.4723 41.659 28.058 41.7961 27.6937C41.9319 27.328 42.344 27.1366 42.714 27.2723V27.2644Z" fill="#5CC773"/>
</svg>

<svg width="46" height="43" fill="none" xmlns="http://www.w3.org/2000/svg">
    <path fill-rule="evenodd" clip-rule="evenodd" d="M45.143 20.264H43a.713.713 0 1 1 0-1.428h2.143a.714.714 0 1 1 0 1.428zm-.465-9.308-2.004.757a.708.708 0 0 1-.916-.429.735.735 0 0 1 .421-.932l2.007-.757a.716.716 0 0 1 .922.429.722.722 0 0 1-.422.932h-.008zm-4.344-7.59a.709.709 0 0 1-1.01-.045.737.737 0 0 1 .032-1.029L40.92.828a.706.706 0 0 1 1.008.043.73.73 0 0 1-.036 1.021l-1.564 1.465.006.009zm-.906 16.9c0 13.068-11.646 22.141-16.428 22.141S6.57 33.4 6.57 20.264V7.407c0-1.443 7.355-5 16.429-5 9.073 0 16.428 3.557 16.428 5v12.859zM38 8.123c0-1.333-6.625-4.286-15-4.286-8.376 0-15 2.953-15 4.286v12.143c0 12.106 10.585 20.713 15 20.713 4.414 0 15-8.665 15-20.715V8.122v.001zM23 38.836c-3.74 0-12.857-8.104-12.857-18.572V9.55C10.143 8.4 15.67 5.98 23 5.98c7.328 0 12.857 2.421 12.857 3.571v10.714c0 10.416-9.119 18.572-12.857 18.572zm11.428-28.572c0-.67-4.664-2.857-11.428-2.857-6.765 0-11.429 2.226-11.429 2.857v10c0 9.649 8.91 17.143 11.429 17.143 2.548 0 11.428-7.54 11.428-17.143v-10zM23 29.55c-3.945 0-6.429-2.483-6.429-6.428 0-3.943 4.149-6.749 2.857-11.429 6.93 0 10 7.486 10 11.429 0 3.945-2.484 6.428-6.428 6.428zm0-1.443c1.19 0 1.443-.958 1.443-2.141 0-2.24-.993-4.272-1.443-4.272-.536 2.234-1.443 3.089-1.443 4.272 0 1.183.252 2.141 1.443 2.141zm-1.905-14.985c0 5.603-3.095 6.982-3.095 10.089 0 2.121.876 3.614 2.424 4.362a4.756 4.756 0 0 1-.281-1.594c0-2.357 1.882-2.907 1.428-5.715 3.972 0 4.286 4.005 4.286 5.715 0 .54-.1 1.088-.282 1.594C27.123 26.825 28 25.33 28 23.211c0-6.124-5.454-10.089-6.905-10.089zM6.239 3.009 4.662 1.543A.724.724 0 0 1 4.628.522a.72.72 0 0 1 1.02-.047l1.577 1.466c.29.27.305.728.033 1.023a.714.714 0 0 1-1.015.043l-.004.002zM3.821 28.75l-2.006.756a.708.708 0 0 1-.915-.427.73.73 0 0 1 .42-.934l2.005-.757c.37-.14.779.052.916.429a.729.729 0 0 1-.42.932v.001zm-.536-16.914-2.009-.746a.715.715 0 0 1 .497-1.34l2.009.746a.715.715 0 0 1-.497 1.34zm-.285 7a.714.714 0 1 1 0 1.428H.857a.713.713 0 1 1 0-1.428H3zM6.38 36.45a.708.708 0 0 1 1.01.045.73.73 0 0 1-.032 1.023L5.8 38.984a.707.707 0 0 1-1.007-.045.73.73 0 0 1 .035-1.023l1.564-1.466H6.38zm33.38.357 1.578 1.465c.29.27.305.728.032 1.023a.725.725 0 0 1-1.021.046l-1.579-1.467a.724.724 0 0 1-.035-1.022.715.715 0 0 1 1.014-.045h.011zm2.954-9.543 2.01.748c.37.135.558.548.42.917a.71.71 0 0 1-.917.422l-2.01-.743a.71.71 0 0 1-.42-.914.718.718 0 0 1 .917-.422v-.008z" fill="#5CC773"/>
</svg>
